shader_type particles;

uniform vec2 global_position;
uniform vec2 screen_size;
uniform float force;
uniform float size;
uniform float thickness;

void start() {
	// Place start code here.
}

void process() {
	// Place process code here.
}


